Newaita-dark/actions/scalable/format-text-italic.svg

<?xml version="1.0" encoding="UTF-8"?>
<svg xmlns="http://www.w3.org/2000/svg" xmlns:xlink="http://www.w3.org/1999/xlink" width="512pt" height="512pt" viewBox="0 0 512 512" version="1.1">
<g id="surface1">
<path style=" stroke:none;fill-rule:nonzero;fill:rgb(47.058824%,56.470591%,61.176473%);fill-opacity:1;" d="M 296.363281 67.507812 C 249.175781 67.507812 203.179688 86.613281 173.855469 115.117188 L 203.328125 137.117188 C 220.933594 120.828125 249.53125 109.84375 279.222656 109.84375 L 291.449219 109.84375 C 334.972656 109.84375 363.863281 133.445312 356.226562 162.765625 L 339.691406 226.269531 C 321.164062 211.242188 293.890625 202.128906 261.300781 202.128906 C 190.9375 202.128906 123.226562 244.613281 109.484375 297.386719 L 106.726562 307.972656 L 107.496094 307.972656 C 102.039062 355.726562 146.09375 392.648438 211.6875 392.648438 C 244.277344 392.648438 276.296875 383.527344 302.648438 368.5 L 296.964844 390.328125 L 339.300781 390.328125 L 360.75 307.972656 L 362.730469 300.363281 L 363.507812 297.386719 L 398.566406 162.765625 C 412.308594 109.992188 366.726562 67.507812 296.363281 67.507812 Z M 244.164062 244.464844 L 256.390625 244.464844 C 299.914062 244.464844 328.804688 268.070312 321.167969 297.386719 C 313.535156 326.707031 272.347656 350.308594 228.828125 350.308594 L 216.597656 350.308594 C 173.074219 350.308594 144.183594 326.707031 151.820312 297.386719 C 159.457031 268.070312 200.640625 244.464844 244.164062 244.464844 Z M 244.164062 244.464844 "/>
</g>
</svg>

<svg xmlns="http://www.w3.org/2000/svg" width="512pt" height="512pt" viewBox="0 0 512 512"><path d="M296.363 67.508c-47.187 0-93.183 19.105-122.508 47.61l29.473 22c17.606-16.29 46.203-27.274 75.895-27.274h12.226c43.524 0 72.414 23.601 64.778 52.922L339.69 226.27c-18.527-15.028-45.8-24.141-78.39-24.141-70.363 0-138.074 42.484-151.817 95.258l-2.757 10.586h.77c-5.458 47.754 38.597 84.675 104.19 84.675 32.59 0 64.61-9.12 90.961-24.148l-5.683 21.828H339.3l21.449-82.355 1.98-7.61.778-2.976 35.058-134.621c13.743-52.774-31.84-95.258-102.203-95.258zm-52.199 176.957h12.227c43.523 0 72.414 23.605 64.777 52.922-7.633 29.32-48.82 52.922-92.34 52.922h-12.23c-43.524 0-72.414-23.602-64.778-52.922 7.637-29.317 48.82-52.922 92.344-52.922zm0 0" fill="#78909c"/></svg>
